svgs/sharp-regular/pump-medical.svg

<svg xmlns="http://www.w3.org/2000/svg" viewBox="0 0 448 512"><!--! Font Awesome Pro 6.6.0 by @fontawesome - https://fontawesome.com License - https://fontawesome.com/license (Commercial License) Copyright 2024 Fonticons, Inc. --><path d="M136 0L248 0l24 0 0 24 0 16 64 0 9.9 0 7 7 56 56 17 17L392 153.9l-17-17-49-49L272 88l0 40-48 0 0-80-64 0 0 80-48 0 0-104 0-24 24 0zM80.1 512L32 512l3.3-48L56 160l272 0 20.7 304 3.3 48-48.1 0L80.1 512zm220.5-48L283.2 208l-182.3 0L83.4 464l217.2 0zM216 296l0 16 16 0 24 0 0 48-24 0-16 0 0 16 0 24-48 0 0-24 0-16-16 0-24 0 0-48 24 0 16 0 0-16 0-24 48 0 0 24z"/></svg>

<svg xmlns="http://www.w3.org/2000/svg" viewBox="0 0 448 512"><!--! Font Awesome Pro 6.4.2 by @fontawesome - https://fontawesome.com License - https://fontawesome.com/license (Commercial License) Copyright 2023 Fonticons, Inc. --><path d="M136 0H248h24V24 40h64 9.9l7 7 56 56 17 17L392 153.9l-17-17-49-49H272v40H224V48H160v80H112V24 0h24zM80.1 512H32l3.3-48L56 160H328l20.7 304 3.3 48H303.9 80.1zm220.5-48L283.2 208H100.8L83.4 464H300.6zM216 296v16h16 24v48H232 216v16 24H168V376 360H152 128V312h24 16V296 272h48v24z"/></svg>
